src/assets/img/icons/duotone-icons/Communication/Mail-opened.svg

<?xml version="1.0" encoding="UTF-8"?>
<svg width="24px" height="24px" viewBox="0 0 24 24" version="1.1" xmlns="http://www.w3.org/2000/svg" xmlns:xlink="http://www.w3.org/1999/xlink">
    <!-- Generator: Sketch 52.2 (67145) - http://www.bohemiancoding.com/sketch -->
    <title>Stockholm-icons / Communication / Mail-opened</title>
    <desc>Created with Sketch.</desc>
    <g id="Stockholm-icons-/-Communication-/-Mail-opened" stroke="none" stroke-width="1" fill="none" fill-rule="evenodd">
        <rect id="bound" x="0" y="0" width="24" height="24"></rect>
        <path d="M6,2 L18,2 C18.5522847,2 19,2.44771525 19,3 L19,12 C19,12.5522847 18.5522847,13 18,13 L6,13 C5.44771525,13 5,12.5522847 5,12 L5,3 C5,2.44771525 5.44771525,2 6,2 Z M7.5,5 C7.22385763,5 7,5.22385763 7,5.5 C7,5.77614237 7.22385763,6 7.5,6 L13.5,6 C13.7761424,6 14,5.77614237 14,5.5 C14,5.22385763 13.7761424,5 13.5,5 L7.5,5 Z M7.5,7 C7.22385763,7 7,7.22385763 7,7.5 C7,7.77614237 7.22385763,8 7.5,8 L10.5,8 C10.7761424,8 11,7.77614237 11,7.5 C11,7.22385763 10.7761424,7 10.5,7 L7.5,7 Z" id="Combined-Shape" fill="#335EEA" opacity="0.3"></path>
        <path d="M3.79274528,6.57253826 L12,12.5 L20.2072547,6.57253826 C20.4311176,6.4108595 20.7436609,6.46126971 20.9053396,6.68513259 C20.9668779,6.77033951 21,6.87277228 21,6.97787787 L21,17 C21,18.1045695 20.1045695,19 19,19 L5,19 C3.8954305,19 3,18.1045695 3,17 L3,6.97787787 C3,6.70173549 3.22385763,6.47787787 3.5,6.47787787 C3.60510559,6.47787787 3.70753836,6.51099993 3.79274528,6.57253826 Z" id="Combined-Shape" fill="#335EEA"></path>
    </g>
</svg>

<svg width="24" height="24" viewBox="0 0 24 24" xmlns="http://www.w3.org/2000/svg"><g fill="none" fill-rule="evenodd"><path d="M0 0h24v24H0z"/><path d="M6 2h12a1 1 0 011 1v9a1 1 0 01-1 1H6a1 1 0 01-1-1V3a1 1 0 011-1zm1.5 3a.5.5 0 000 1h6a.5.5 0 100-1h-6zm0 2a.5.5 0 000 1h3a.5.5 0 100-1h-3z" fill="#335EEA" opacity=".3"/><path d="M3.793 6.573L12 12.5l8.207-5.927a.5.5 0 01.793.405V17a2 2 0 01-2 2H5a2 2 0 01-2-2V6.978a.5.5 0 01.793-.405z" fill="#335EEA"/></g></svg>
